assets/payVisa3.svg

<svg width="60" height="50" viewBox="0 0 60 50" fill="none" xmlns="http://www.w3.org/2000/svg">
<path fill-rule="evenodd" clip-rule="evenodd" d="M29.4976 36.7612C31.081 35.3166 32.3451 33.557 33.2088 31.5953C34.0724 29.6336 34.5165 27.513 34.5126 25.3696C34.5166 23.2261 34.0725 21.1056 33.2088 19.1438C32.3452 17.1821 31.0811 15.4225 29.4976 13.9779C26.7898 11.5062 23.1979 10 19.2562 10C10.8307 10 4 16.8811 4 25.3696C4 33.8578 10.8307 40.7391 19.2562 40.7391C23.1979 40.7391 26.7901 39.2329 29.4976 36.7612Z" fill="#3A9BD9"/>
<path fill-rule="evenodd" clip-rule="evenodd" d="M39.7453 10C35.8036 10 32.2111 11.5062 29.5039 13.9779C28.9518 14.4824 28.437 15.0262 27.9636 15.6052H31.0432C31.4659 16.1219 31.8547 16.6656 32.207 17.2327H26.8006C26.4751 17.7572 26.1814 18.3007 25.921 18.8603H33.0853C33.3319 19.3899 33.548 19.9332 33.7326 20.4875H25.275C25.0976 21.0214 24.9498 21.5647 24.832 22.1148H34.1758C34.4046 23.1846 34.5197 24.2756 34.5193 25.3696C34.5193 27.0759 34.2423 28.7176 33.7329 30.2513H25.275C25.4589 30.8058 25.6746 31.3492 25.921 31.8789H33.0853C32.8253 32.4385 32.532 32.982 32.2068 33.5064H26.8006C27.1525 34.0735 27.5409 34.6172 27.9633 35.1339H31.0432C30.5703 35.7132 30.0559 36.2571 29.5039 36.7615C32.2111 39.2332 35.8036 40.7394 39.7453 40.7394C48.1706 40.7394 55.0015 33.858 55.0015 25.3698C55.0015 16.8811 48.1706 10 39.7453 10Z" fill="#CC2131"/>
<path fill-rule="evenodd" clip-rule="evenodd" d="M52.9688 33.9371C52.9688 33.6629 53.1893 33.4404 53.4618 33.4404C53.7339 33.4404 53.9544 33.6629 53.9544 33.9371C53.9544 34.2107 53.7339 34.4332 53.4618 34.4332C53.3307 34.4327 53.2051 34.3802 53.1126 34.2872C53.0201 34.1942 52.9684 34.0682 52.9688 33.9371ZM53.4616 34.3138C53.6682 34.3138 53.8358 34.1456 53.8358 33.9368C53.8358 33.728 53.6682 33.5593 53.4616 33.5593C53.2544 33.5593 53.0868 33.728 53.0868 33.9368C53.0868 34.1456 53.2547 34.3138 53.4616 34.3138ZM53.3951 34.1546H53.2939V33.7179H53.4771C53.515 33.7179 53.5537 33.719 53.5872 33.7403C53.6046 33.7526 53.6188 33.7689 53.6284 33.7879C53.6381 33.8069 53.6429 33.828 53.6426 33.8493C53.6426 33.8984 53.6139 33.9447 53.5676 33.9621L53.6475 34.1543H53.5352L53.4692 33.9818H53.3953V34.1546V33.9076H53.4512C53.4714 33.9076 53.4943 33.9087 53.5125 33.8986C53.5206 33.8931 53.5272 33.8856 53.5317 33.8768C53.5362 33.868 53.5384 33.8583 53.5382 33.8485C53.5378 33.8397 53.5354 33.8311 53.5312 33.8235C53.5269 33.8158 53.5209 33.8092 53.5136 33.8043C53.4962 33.7937 53.4678 33.7964 53.4488 33.7964H53.3956V34.1546H53.3951Z" fill="#CC2131"/>
<path fill-rule="evenodd" clip-rule="evenodd" d="M49.7429 28.7008C49.7429 28.4266 49.9634 28.2041 50.2354 28.2041C50.5074 28.2041 50.7279 28.4266 50.7279 28.7008C50.7279 28.975 50.5074 29.1969 50.2354 29.1969C49.9634 29.1969 49.7429 28.9747 49.7429 28.7008ZM50.2351 29.0775C50.4417 29.0775 50.6094 28.9087 50.6094 28.7005C50.6094 28.4917 50.4417 28.323 50.2351 28.323C50.028 28.323 49.8609 28.4917 49.8609 28.7005C49.8609 28.9087 50.0282 29.0775 50.2351 29.0775ZM50.1686 28.9183H50.0675V28.4822H50.2507C50.2885 28.4822 50.3278 28.4827 50.3608 28.5045C50.3782 28.5167 50.3923 28.5329 50.402 28.5519C50.4116 28.5708 50.4165 28.5918 50.4161 28.613C50.4161 28.6626 50.3878 28.7084 50.3412 28.7258L50.421 28.918H50.3093L50.2428 28.7455H50.1689V28.9183V28.6713H50.2248C50.2455 28.6713 50.2684 28.673 50.2861 28.6629C50.2941 28.6572 50.3006 28.6497 50.3051 28.641C50.3096 28.6322 50.3118 28.6225 50.3117 28.6127C50.3115 28.6039 50.3092 28.5952 50.3049 28.5874C50.3007 28.5796 50.2946 28.5729 50.2872 28.568C50.2697 28.5579 50.2414 28.5601 50.2229 28.5601H50.1692V28.9183H50.1686ZM17.3558 29.1969H15.457L16.5855 23.2068L13.9873 29.1969H12.2559L11.9395 23.2411L10.8075 29.1969H9.08398L10.5567 21.4048H13.5196L13.6763 26.2288L15.7653 21.4048H18.8527L17.3558 29.1969ZM38.5758 29.1192C38.0563 29.2628 37.6502 29.3247 37.2113 29.3247C36.2399 29.3247 35.7094 28.8338 35.7094 27.9332C35.7094 27.7549 35.7291 27.5652 35.7653 27.3646L35.8809 26.7451L35.9697 26.2435L36.8499 21.4045H38.7383L38.4646 22.8598H39.4336L39.1733 24.4004H38.2002L37.6998 27.0443C37.6812 27.1307 37.6704 27.2185 37.6673 27.3068C37.6673 27.6342 37.8639 27.7765 38.3152 27.7765C38.5314 27.7765 38.699 27.7568 38.8274 27.7173L38.5758 29.1192ZM44.1216 22.9119C43.9624 22.8486 43.9251 22.8486 43.9065 22.8435C43.8059 22.8211 43.7523 22.808 43.743 22.8064C43.6799 22.7954 43.6159 22.7901 43.5519 22.7906C42.9285 22.7906 42.4791 23.0702 41.8979 23.8195L42.0656 22.8593H40.3459L39.1886 29.1966H41.0887C41.7685 25.3209 42.0596 24.6422 42.9711 24.6422C43.0397 24.6422 43.1191 24.6476 43.2112 24.6582L43.4331 24.7038L44.1216 22.9119ZM31.0487 24.8619C31.0487 25.6624 31.4966 26.2138 32.5116 26.6281C33.2895 26.9465 33.4097 27.0397 33.4097 27.3275C33.4097 27.722 33.0669 27.9 32.3072 27.9C31.7337 27.9 31.2008 27.8223 30.5856 27.6492L30.322 29.111L30.4071 29.1254L30.759 29.1903C30.8724 29.2099 31.0395 29.2287 31.2611 29.2456C31.7179 29.2813 32.0714 29.2982 32.3205 29.2982C34.3474 29.2982 35.2837 28.6291 35.2837 27.1836C35.2837 26.3138 34.8923 25.8039 33.9298 25.4198C33.1244 25.099 33.0311 25.0279 33.0311 24.7321C33.0311 24.3906 33.3506 24.215 33.9713 24.215C34.3488 24.215 34.8634 24.2507 35.3516 24.3102L35.6252 22.8432C35.128 22.775 34.3736 22.7192 33.935 22.7192C31.786 22.7194 31.0422 23.6931 31.0487 24.8619ZM23.5284 29.1969H21.9505L21.9873 28.54C21.5068 29.06 20.8662 29.3064 19.9956 29.3064C18.9667 29.3064 18.2604 28.6005 18.2604 27.5756C18.2604 26.0317 19.4873 25.132 21.5959 25.132C21.812 25.132 22.0865 25.1491 22.3695 25.1808C22.4283 24.9725 22.4444 24.8826 22.4444 24.7692C22.4444 24.3497 22.1132 24.1927 21.2266 24.1927C20.6844 24.1927 20.0717 24.2614 19.6486 24.3693L19.3856 24.4366L19.2152 24.4775L19.4785 23.0528C20.4252 22.8086 21.0499 22.7162 21.7518 22.7162C23.3837 22.7162 24.2461 23.36 24.2461 24.5751C24.2461 24.8877 24.2175 25.1252 24.0918 25.8306L23.695 28.0788L23.6282 28.4822L23.5797 28.8043L23.5472 29.0249L23.5284 29.1969ZM22.1432 26.3735C22.0024 26.356 21.8607 26.3473 21.7188 26.3474C20.6427 26.3474 20.0976 26.6715 20.0976 27.3115C20.0976 27.7059 20.3636 27.9577 20.7787 27.9577C21.5528 27.958 22.1105 27.3106 22.1432 26.3735ZM29.7575 29.06C29.1234 29.2321 28.469 29.3186 27.8119 29.3171C25.6891 29.3154 24.5828 28.3418 24.5828 26.4779C24.5828 24.3025 25.9903 22.7009 27.9011 22.7009C29.4643 22.7009 30.4624 23.5979 30.4624 25.0044C30.4624 25.4713 30.3943 25.9265 30.2294 26.569H26.454C26.4424 26.6347 26.4363 26.7012 26.4357 26.768C26.4357 27.5025 26.9986 27.8773 28.1014 27.8773C28.7796 27.8773 29.3926 27.7533 30.0732 27.4764L29.7575 29.06ZM28.7463 25.2892C28.7567 25.1573 28.7621 25.0494 28.7621 24.966C28.7621 24.4514 28.4293 24.1493 27.864 24.1493C27.26 24.1493 26.8279 24.5544 26.6527 25.2854L28.7463 25.2892ZM50.0239 26.3237C49.7396 28.4317 48.2783 29.3667 46.3357 29.3667C44.1875 29.3667 43.32 28.054 43.32 26.4455C43.32 24.1995 44.7894 22.6777 47.0588 22.6777C49.0287 22.6777 50.0746 23.9291 50.0746 25.5378C50.0746 25.9293 50.074 25.9551 50.0239 26.3237ZM48.0684 25.5128C48.0684 24.8499 47.8013 24.224 47.0229 24.224C46.0539 24.224 45.4534 25.3778 45.4534 26.3964C45.4534 27.2556 45.865 27.8329 46.5437 27.8206C46.9553 27.8206 47.8329 27.2559 48.0066 26.2694C48.0472 26.0394 48.0684 25.787 48.0684 25.5128Z" fill="white"/>
</svg>

<svg xmlns="http://www.w3.org/2000/svg" width="60" height="50" fill="none" fill-rule="evenodd" xmlns:v="https://vecta.io/nano"><path d="M29.498 36.76c1.583-1.445 2.848-3.204 3.71-5.166a15.38 15.38 0 0 0 1.304-6.226 15.38 15.38 0 0 0-5.015-11.392C26.8 11.506 23.198 10 19.256 10 10.83 10 4 16.88 4 25.37s6.83 15.37 15.256 15.37c3.942 0 7.534-1.506 10.24-3.978z" fill="#3a9bd9"/><path d="M39.745 10a15.13 15.13 0 0 0-10.24 3.978c-.552.505-1.067 1.048-1.54 1.627h3.08a15.43 15.43 0 0 1 1.164 1.628H26.8a15.44 15.44 0 0 0-.88 1.628h7.164a15.33 15.33 0 0 1 .647 1.627h-8.458c-.177.534-.325 1.077-.443 1.627h9.344a15.41 15.41 0 0 1 .343 3.255 15.48 15.48 0 0 1-.786 4.882h-8.458a15.31 15.31 0 0 0 .646 1.628h7.164a15.4 15.4 0 0 1-.878 1.627H26.8a15.37 15.37 0 0 0 1.163 1.627h3.08c-.473.58-.987 1.123-1.54 1.628 2.707 2.472 6.3 3.978 10.24 3.978C48.168 40.74 55 33.86 55 25.37S48.17 10 39.745 10zM52.97 33.937c0-.274.22-.497.493-.497s.493.223.493.497-.22.496-.493.496a.5.5 0 0 1-.35-.146c-.093-.093-.144-.22-.144-.35zm.493.377c.207 0 .374-.168.374-.377s-.168-.377-.374-.377-.375.17-.375.377.168.377.375.377zm-.066-.16h-.1v-.437h.183c.038 0 .077.001.1.022a.13.13 0 0 1 .041.048c.01.02.014.04.014.06 0 .05-.03.095-.075.113l.08.192h-.112l-.066-.172h-.074v.173-.247h.056c.02 0 .043.001.06-.01.008-.006.015-.013.02-.022s.007-.02.007-.028-.003-.017-.007-.025-.01-.014-.018-.02c-.017-.01-.046-.008-.065-.008h-.053v.358h-.001z" fill="#cc2131"/><path d="M49.743 28.7c0-.274.22-.497.492-.497s.492.223.492.497-.22.496-.492.496-.492-.222-.492-.496zm.492.377c.207 0 .374-.17.374-.377s-.168-.378-.374-.378-.374.17-.374.378.167.377.374.377zm-.067-.16h-.1v-.436h.183c.038 0 .077.001.1.022a.13.13 0 0 1 .055.108c0 .05-.028.095-.075.113l.08.192h-.112l-.066-.172h-.074v.173-.247h.056c.02 0 .044.002.06-.008.008-.006.015-.013.02-.022s.007-.018.007-.028-.003-.018-.007-.025-.01-.014-.018-.02c-.017-.01-.046-.008-.064-.008h-.054v.358h-.001zm-32.813.28h-1.9l1.128-6-2.598 6h-1.73l-.316-5.956-1.132 5.956H9.084l1.473-7.792h2.963l.157 4.824 2.09-4.824h3.087l-1.497 7.792zm21.22-.078c-.52.144-.926.206-1.364.206-.97 0-1.502-.49-1.502-1.392 0-.178.02-.368.056-.57l.116-.62.09-.502.88-4.84h1.888l-.274 1.455h.97l-.26 1.54H38.2l-.5 2.644c-.02.086-.03.174-.033.262 0 .327.197.47.648.47a1.78 1.78 0 0 0 .512-.059l-.252 1.402zm5.546-6.207c-.16-.063-.197-.063-.215-.068l-.163-.037c-.063-.01-.127-.016-.19-.016-.623 0-1.073.28-1.654 1.03l.168-.96h-1.72l-1.157 6.337h1.9c.68-3.876.97-4.554 1.882-4.554a2.13 2.13 0 0 1 .24.016l.222.046.688-1.792zm-13.073 1.95c0 .8.448 1.352 1.463 1.766.778.318.898.412.898.7 0 .395-.343.572-1.102.572a6.13 6.13 0 0 1-1.722-.251l-.264 1.462.085.014.352.065a5.71 5.71 0 0 0 .502.055l1.06.053c2.027 0 2.963-.67 2.963-2.115 0-.87-.39-1.38-1.354-1.764-.805-.32-.9-.392-.9-.688 0-.34.32-.517.94-.517.377 0 .892.036 1.38.095l.274-1.467c-.497-.068-1.252-.124-1.7-.124-2.15 0-2.893.974-2.886 2.143zm-7.52 4.335H21.95l.037-.657c-.48.52-1.12.766-1.992.766-1.03 0-1.735-.706-1.735-1.73 0-1.544 1.227-2.444 3.335-2.444.216 0 .49.017.774.05.06-.208.075-.298.075-.412 0-.42-.33-.577-1.218-.577-.542 0-1.155.07-1.578.177l-.263.067-.17.04.263-1.425c.947-.244 1.57-.337 2.273-.337 1.632 0 2.494.644 2.494 1.86 0 .313-.03.55-.154 1.256l-.397 2.248-.067.403-.05.322-.032.22-.02.172zm-1.385-2.823a3.42 3.42 0 0 0-.424-.026c-1.076 0-1.62.324-1.62.964 0 .394.266.646.68.646.774 0 1.332-.647 1.364-1.584zm7.614 2.686c-.634.172-1.288.26-1.946.257-2.123-.002-3.23-.975-3.23-2.84 0-2.175 1.408-3.777 3.318-3.777 1.563 0 2.56.897 2.56 2.303 0 .467-.068.922-.233 1.565h-3.775c-.012.066-.018.132-.018.2 0 .735.563 1.11 1.666 1.11a5.03 5.03 0 0 0 1.972-.401l-.316 1.584zm-1.01-3.77l.016-.323c0-.515-.333-.817-.898-.817-.604 0-1.036.405-1.21 1.136l2.094.004zm21.278 1.034c-.284 2.108-1.746 3.043-3.688 3.043-2.148 0-3.016-1.313-3.016-2.92 0-2.246 1.47-3.768 3.74-3.768 1.97 0 3.016 1.25 3.016 2.86 0 .392-.001.417-.05.786zm-1.956-.81c0-.663-.267-1.29-1.045-1.29-.97 0-1.57 1.154-1.57 2.172 0 .86.412 1.436 1.1 1.424.412 0 1.29-.565 1.463-1.55a4.36 4.36 0 0 0 .062-.757z" fill="#fff"/></svg>
